img/delete_row.svg

<svg xmlns="http://www.w3.org/2000/svg" width="24" height="24" viewBox="0 0 24 24">
  <path d="M13.2546893,15 C12.8333806,15.6040072 12.5048858,16.2775651 12.2898787,17 L5,17 C2.23857625,17 3.38176876e-16,14.7614237 0,12 C-1.2263553e-15,9.23857625 2.23857625,7 5,7 L19,7 C21.7614237,7 24,9.23857625 24,12 C24,12.6294813 23.8836754,13.2317936 23.6713497,13.7866134 C23.1547532,13.3234155 22.5689168,12.9358807 21.9312708,12.6414391 C21.9762852,12.4347751 22,12.220157 22,12 C22,10.3431458 20.6568542,9 19,9 L5,9 C3.34314575,9 2,10.3431458 2,12 C2,13.6568542 3.34314575,15 5,15 L13.2546893,15 Z M19,14 C21.7600532,14.0033061 23.9966939,16.2399468 24,19 C24,21.7614237 21.7614237,24 19,24 C16.2385763,24 14,21.7614237 14,19 C14,16.2385763 16.2385763,14 19,14 Z M16.5,19.9375 L21.5,19.9375 C22.017767,19.9375 22.4375,19.517767 22.4375,19 C22.4375,18.482233 22.017767,18.0625 21.5,18.0625 L16.5,18.0625 C15.982233,18.0625 15.5625,18.482233 15.5625,19 C15.5625,19.517767 15.982233,19.9375 16.5,19.9375 Z"/>
</svg>

<svg width="24" height="24" viewBox="0 0 24 24" xmlns="http://www.w3.org/2000/svg"><path d="m13.255 15c-0.42131 0.60401-0.7498 1.2776-0.96481 2h-7.2899c-2.7614 0-5-2.2386-5-5-1.2264e-15 -2.7614 2.2386-5 5-5h14c2.7614 0 5 2.2386 5 5 0 0.62948-0.11632 1.2318-0.32865 1.7866-0.5166-0.4632-1.1024-0.85073-1.7401-1.1452 0.045014-0.20666 0.068729-0.42128 0.068729-0.64144 0-1.6569-1.3431-3-3-3h-14c-1.6569 0-3 1.3431-3 3s1.3431 3 3 3h8.2547zm5.7453-1c2.7601 0.0033061 4.9967 2.2399 5 5 0 2.7614-2.2386 5-5 5s-5-2.2386-5-5 2.2386-5 5-5zm-2.5 5.9375h5c0.51777 0 0.9375-0.41973 0.9375-0.9375s-0.41973-0.9375-0.9375-0.9375h-5c-0.51777 0-0.9375 0.41973-0.9375 0.9375s0.41973 0.9375 0.9375 0.9375z"/></svg>
